components/ui-node-icon/src/postgresSource/postgresSource.large.svg

<svg width="32" height="32" viewBox="0 0 32 32" fill="none" xmlns="http://www.w3.org/2000/svg">
  <path d="M22.1157 2C20.9943 2.00809 19.8795 2.16631 18.8027 2.47017L18.7269 2.4935C18.0477 2.37706 17.3602 2.31269 16.6705 2.301C15.2539 2.27767 14.037 2.61134 13.0557 3.16668C12.0888 2.84117 10.0829 2.28 7.96885 2.392C6.49692 2.47017 4.89031 2.90417 3.69978 4.12335C2.51286 5.34253 1.88512 7.22905 2.0174 9.79574C2.05348 10.5039 2.26152 11.6589 2.60665 13.1546C2.95179 14.6503 3.43642 16.4015 4.0413 17.9986C4.64619 19.597 5.3088 21.032 6.3442 22.0073C6.8613 22.4962 7.57321 22.9069 8.4126 22.873C9.00185 22.8497 9.53458 22.5989 9.99396 22.229C10.2176 22.5149 10.4569 22.6397 10.6746 22.7552C10.9488 22.901 11.2158 23.0002 11.4923 23.0655C11.989 23.1857 12.8392 23.3467 13.8349 23.1822C14.174 23.1274 14.5312 23.02 14.8872 22.8672C14.9004 23.2522 14.916 23.629 14.9317 24.0105C14.981 25.2192 15.0122 26.3357 15.3862 27.3146C15.4463 27.4744 15.6111 28.2981 16.2605 29.0249C16.9099 29.7529 18.1822 30.2068 19.6312 29.9058C20.6534 29.6934 21.9534 29.3107 22.8168 28.1184C23.6706 26.9401 24.0554 25.2495 24.1312 22.5078C24.1504 22.3597 24.1733 22.2337 24.1973 22.1158L24.4006 22.1333H24.4246C25.5154 22.1812 26.6987 22.0307 27.6872 21.585C28.5626 21.1918 29.2252 20.794 29.7075 20.0882C29.8277 19.9132 29.96 19.702 29.9961 19.338C30.0322 18.974 29.8169 18.4046 29.4597 18.1421C28.7442 17.6148 28.2945 17.8155 27.8122 17.9123C27.3372 18.0142 26.8531 18.0712 26.3668 18.0826C27.7569 15.8111 28.7538 13.3984 29.3226 11.2634C29.6594 10.0034 29.8482 8.84139 29.8638 7.82522C29.8794 6.80904 29.794 5.90953 29.1663 5.13136C27.2049 2.70001 24.4475 2.028 22.3141 2.00467C22.248 2.0035 22.1819 2.00233 22.1157 2.0035V2ZM22.0592 2.74667C24.0771 2.72801 26.6554 3.27751 28.5061 5.57237C28.9222 6.08804 29.0461 6.84171 29.0316 7.77039C29.016 8.69789 28.8392 9.80857 28.5157 11.0254C27.888 13.3821 26.7023 16.1296 25.0319 18.5948C25.0909 18.6355 25.1547 18.6692 25.2219 18.6952C25.5707 18.8352 26.3656 18.9553 27.9517 18.6391C28.351 18.5575 28.6432 18.5026 28.9462 18.7267C29.0199 18.7872 29.0781 18.8635 29.1163 18.9495C29.1544 19.0355 29.1716 19.129 29.1663 19.2225C29.1501 19.3641 29.0963 19.4992 29.01 19.6145C28.7033 20.0613 28.0984 20.4848 27.3228 20.8337C26.6361 21.144 25.6512 21.3062 24.7782 21.3155C24.3405 21.3202 23.9364 21.2875 23.5937 21.1837L23.572 21.1755C23.4397 22.4122 23.1355 24.854 22.9371 25.9682C22.7783 26.8666 22.5005 27.5806 21.9702 28.1149C21.4411 28.6492 20.6919 28.9712 19.6842 29.1812C18.4359 29.4414 17.5256 29.1614 16.9387 28.6819C16.3531 28.2036 16.0849 27.5689 15.9238 27.1804C15.8131 26.9121 15.7554 26.5644 15.7001 26.1C15.6448 25.6357 15.6039 25.0675 15.5762 24.427C15.5394 23.4463 15.5274 22.4648 15.5401 21.4835C15.0187 21.9468 14.3708 22.2547 13.6738 22.3702C12.8452 22.5067 12.1056 22.3725 11.6643 22.2652C11.4467 22.2122 11.2367 22.1334 11.039 22.0307C10.8345 21.9245 10.6397 21.8043 10.5099 21.5675C10.4335 21.4319 10.4093 21.2744 10.4413 21.123C10.482 20.9696 10.5742 20.8337 10.7035 20.7368C10.9416 20.549 11.2566 20.444 11.7317 20.3483C12.5963 20.1757 12.8981 20.0578 13.0821 19.9167C13.2385 19.7953 13.4152 19.5503 13.7279 19.191C13.7264 19.1751 13.7252 19.1591 13.7243 19.1432C13.1647 19.1279 12.6168 18.9848 12.1249 18.7255C11.9445 18.9098 11.0233 19.8548 9.90016 21.1662C9.42755 21.7145 8.90564 22.0295 8.35487 22.0517C7.8041 22.075 7.30624 21.8055 6.88294 21.4077C6.03755 20.6108 5.36291 19.24 4.77486 17.6906C4.18802 16.1413 3.7106 14.4158 3.37148 12.9458C3.03116 11.4758 2.83033 10.2904 2.80147 9.71874C2.6752 7.28971 3.26085 5.65287 4.26498 4.62036C5.27032 3.58785 6.64845 3.19701 7.9917 3.12234C10.4028 2.98818 12.6925 3.80368 13.1555 3.97868C14.0478 3.39068 15.1974 3.02434 16.6333 3.04768C17.3149 3.05695 17.9932 3.14229 18.6548 3.30201L18.6788 3.29151C18.97 3.19221 19.2667 3.10886 19.5675 3.04184C20.3843 2.85699 21.2194 2.7588 22.058 2.74901L22.0592 2.74667ZM22.242 3.52835H22.0664C21.3775 3.53767 20.6911 3.6127 20.0173 3.75235C21.5156 4.39635 22.6473 5.38803 23.4445 6.37737C23.9984 7.06238 24.4561 7.81562 24.8058 8.61739C24.9381 8.9254 25.0271 9.18556 25.0776 9.3874C25.1029 9.4889 25.1197 9.57407 25.1257 9.66273C25.1281 9.70707 25.1305 9.75257 25.1113 9.83074C25.1113 9.83424 25.1053 9.8424 25.1041 9.8459C25.1402 10.8679 24.8792 11.5609 24.8479 12.5363C24.8239 13.2433 25.0103 14.0739 25.056 14.9804C25.0993 15.8321 24.9934 16.7678 24.4234 17.686C24.4715 17.742 24.5148 17.798 24.5605 17.854C26.0685 15.5498 27.1556 13.0006 27.7353 10.8271C28.0455 9.6569 28.2103 8.59639 28.2247 7.75638C28.2367 6.91638 28.0756 6.30737 27.87 6.05304C26.2561 4.05102 24.0723 3.54118 22.242 3.52718V3.52835ZM16.4817 3.82702C15.0603 3.83052 14.0406 4.24702 13.2673 4.87119C12.47 5.51636 11.9349 6.39954 11.5837 7.30371C11.1664 8.37706 11.0233 9.4154 10.9668 10.1201L10.9825 10.1107C11.4118 9.8774 11.9758 9.64407 12.5795 9.50873C13.1831 9.37457 13.8337 9.33257 14.423 9.55423C15.0122 9.7759 15.4993 10.2974 15.676 11.0884C16.5226 14.8883 15.4127 16.3011 15.0038 17.3675C14.8487 17.754 14.7158 18.1485 14.6058 18.5493C14.6575 18.5376 14.7092 18.5236 14.7609 18.519C15.0495 18.4956 15.2756 18.589 15.4103 18.645C15.8215 18.8106 16.1041 19.1583 16.2569 19.555C16.2966 19.6588 16.3254 19.7708 16.3423 19.8863C16.36 19.9338 16.3682 19.9841 16.3663 20.0345C16.3207 21.4879 16.3259 22.9424 16.3819 24.3955C16.4096 25.0232 16.4505 25.5762 16.5022 26.0125C16.5539 26.4477 16.6273 26.7791 16.6742 26.8911C16.8281 27.2644 17.053 27.7532 17.4594 28.0857C17.8659 28.4171 18.4491 28.6387 19.5146 28.4171C20.4382 28.2246 21.0082 27.9574 21.3894 27.5736C21.7694 27.1897 21.9967 26.6554 22.1422 25.8375C22.3598 24.6125 22.7976 21.06 22.8505 20.3915C22.8264 19.8875 22.9034 19.5002 23.0694 19.205C23.2401 18.9017 23.5047 18.7161 23.7332 18.6158C23.8474 18.5656 23.9544 18.5318 24.0422 18.5073C23.9493 18.3777 23.8518 18.2513 23.75 18.1281C23.4206 17.7405 23.1508 17.3087 22.9491 16.846C22.8525 16.6549 22.7494 16.4669 22.64 16.2825C22.4801 16.0025 22.2781 15.6525 22.0664 15.2593C21.6431 14.4718 21.1825 13.5174 20.9432 12.5876C20.7051 11.6589 20.6703 10.6976 21.2812 10.0197C21.8223 9.41773 22.7723 9.16806 24.1986 9.30807C24.1565 9.18556 24.1312 9.08406 24.0603 8.92073C23.7378 8.18442 23.3169 7.49248 22.8084 6.86271C21.5998 5.36353 19.6433 3.87718 16.62 3.82935H16.4817V3.82702ZM8.49437 3.88768C8.34165 3.88768 8.18892 3.89235 8.0374 3.90052C6.82282 3.96818 5.67438 4.31002 4.85303 5.1547C4.03048 5.99937 3.48933 7.38421 3.60718 9.67674C3.63003 10.1107 3.82484 11.3264 4.15916 12.7708C4.49226 14.2151 4.96487 15.915 5.53247 17.4165C6.10128 18.918 6.79035 20.2247 7.44454 20.843C7.77404 21.1522 8.06025 21.277 8.32 21.2665C8.58095 21.2548 8.89482 21.109 9.27844 20.6622C9.97785 19.8437 10.7038 19.0468 11.4551 18.2728C10.922 17.8238 10.514 17.2517 10.2687 16.6095C10.0235 15.9672 9.94883 15.2754 10.0517 14.5978C10.1755 13.7356 10.1924 12.9294 10.1779 12.2924C10.1635 11.6718 10.1178 11.2587 10.1178 11.0009C10.1176 10.9935 10.1176 10.9861 10.1178 10.9787V10.9729L10.1166 10.9659V10.9647C10.1159 9.62166 10.3568 8.28876 10.8285 7.02605C11.1652 6.15804 11.6667 5.27603 12.4183 4.56202C11.6799 4.32635 10.3692 3.96702 8.95014 3.89935C8.79794 3.89177 8.64557 3.88788 8.49317 3.88768H8.49437ZM23.4037 10.0501C22.5871 10.0606 22.129 10.2647 21.8884 10.5319C21.5481 10.9111 21.5156 11.5761 21.7273 12.3951C21.9377 13.2153 22.3731 14.1323 22.7819 14.8941C22.9864 15.2756 23.1848 15.6186 23.3447 15.8975C23.5059 16.1775 23.6237 16.3758 23.6959 16.545C23.762 16.7013 23.8354 16.839 23.9099 16.9673C24.2262 16.3198 24.2827 15.684 24.2503 15.0213C24.2082 14.2011 24.0122 13.3623 24.041 12.5129C24.0735 11.5201 24.2755 10.8737 24.2936 10.1061C23.9985 10.069 23.7012 10.0503 23.4037 10.0501ZM13.5018 10.1842C13.2524 10.1865 13.0039 10.2155 12.761 10.2706C12.2769 10.3847 11.8106 10.5608 11.3745 10.7944C11.227 10.8712 11.0865 10.9602 10.9548 11.0604L10.9283 11.0837C10.9356 11.2541 10.9704 11.6671 10.9849 12.2749C10.9993 12.9399 10.9825 13.7881 10.8502 14.7063C10.5628 16.7013 12.0551 18.3533 13.8085 18.3556C13.9107 17.9461 14.079 17.5308 14.2474 17.0933C14.7356 15.817 15.6965 14.8859 14.8872 11.2529C14.7549 10.6579 14.4927 10.4176 14.132 10.2822C13.9297 10.2129 13.7162 10.1797 13.5018 10.1842ZM23.0225 10.4222H23.0826C23.1619 10.4246 23.2353 10.4327 23.299 10.4479C23.364 10.4619 23.4193 10.4829 23.465 10.5121C23.4884 10.5262 23.5086 10.5449 23.5241 10.567C23.5396 10.5891 23.5502 10.6141 23.5552 10.6404L23.554 10.6497H23.5552H23.554C23.5563 10.7051 23.5417 10.7599 23.5119 10.8072C23.4764 10.8713 23.4319 10.9302 23.3796 10.9822C23.2576 11.1126 23.0942 11.1996 22.9154 11.2296C22.7414 11.25 22.5658 11.2072 22.4224 11.1094C22.3637 11.0711 22.311 11.0247 22.266 10.9717C22.2271 10.9301 22.2009 10.8788 22.1903 10.8236C22.1878 10.7967 22.191 10.7695 22.1996 10.7439C22.2083 10.7182 22.2223 10.6945 22.2408 10.6742C22.2802 10.6307 22.328 10.5951 22.3815 10.5692C22.4969 10.5062 22.6533 10.4596 22.83 10.4339C22.8962 10.4246 22.9611 10.4199 23.0225 10.4187V10.4222ZM13.6185 10.6182C13.6822 10.6182 13.7495 10.6241 13.8181 10.6334C14.0021 10.6579 14.1656 10.7057 14.2907 10.7757C14.3517 10.8066 14.406 10.8486 14.4506 10.8994C14.4749 10.9264 14.4933 10.9579 14.5044 10.992C14.5156 11.0261 14.5194 11.0621 14.5156 11.0977C14.504 11.1648 14.4727 11.2272 14.4254 11.2774C14.3762 11.336 14.3182 11.3871 14.2534 11.4291C14.097 11.5366 13.9049 11.5836 13.7147 11.5609C13.5203 11.5299 13.3423 11.4362 13.2096 11.2949C13.1531 11.238 13.1053 11.1736 13.0677 11.1036C13.0281 11.042 13.0107 10.9693 13.0184 10.8971C13.0364 10.7711 13.1435 10.7057 13.2481 10.6696C13.3672 10.6326 13.4923 10.6168 13.6173 10.6229L13.6185 10.6182ZM24.5136 19.1852L24.51 19.1863C24.3332 19.2482 24.1877 19.2738 24.0651 19.3263C23.941 19.3727 23.8388 19.4615 23.7777 19.576C23.7019 19.7102 23.637 19.9482 23.6562 20.353C23.7106 20.3893 23.7707 20.4169 23.8342 20.4347C24.0398 20.4953 24.3849 20.535 24.7698 20.5292C25.537 20.521 26.481 20.3472 26.9825 20.1208C27.3938 19.9354 27.7757 19.6938 28.1165 19.4033H28.1153C26.4401 19.7393 25.4937 19.6495 24.9129 19.4173C24.7686 19.3591 24.6341 19.2805 24.5136 19.184V19.1852ZM14.8559 19.2948H14.8306C14.7669 19.3007 14.6743 19.3217 14.4951 19.5142C14.0766 19.9692 13.9299 20.255 13.5848 20.5222C13.2397 20.7882 12.7911 20.9305 11.8952 21.109C11.6114 21.165 11.449 21.2268 11.3408 21.277C11.3757 21.305 11.3721 21.312 11.425 21.3388C11.5561 21.4088 11.7244 21.4707 11.8603 21.5045C12.2451 21.5978 12.8777 21.7063 13.5379 21.5978C14.1981 21.4882 14.8848 21.1813 15.4704 20.3845C15.5714 20.2468 15.5822 20.0438 15.4993 19.8257C15.4151 19.6075 15.2311 19.4197 15.1012 19.3672C15.0239 19.331 14.9411 19.3073 14.8559 19.2972V19.2948Z" fill="var(--tbl--colors--brand--postgres)"/>
</svg>

<svg xmlns="http://www.w3.org/2000/svg" width="32" height="32" fill="none" viewBox="0 0 32 32">
  <path fill="var(--tbl--colors--brand--postgres)" d="M22.116 2a12.535 12.535 0 0 0-3.313.47l-.076.023c-.68-.116-1.367-.18-2.056-.192-1.417-.023-2.634.31-3.615.866-.967-.326-2.973-.887-5.087-.775-1.472.078-3.079.512-4.27 1.731-1.186 1.22-1.814 3.106-1.682 5.673.036.708.245 1.863.59 3.359.345 1.495.83 3.246 1.434 4.844.605 1.598 1.268 3.033 2.303 4.008.517.49 1.23.9 2.069.866.589-.023 1.122-.274 1.581-.644.224.286.463.41.68.526.275.146.542.245.818.31.497.12 1.347.282 2.343.117a4.53 4.53 0 0 0 1.052-.315c.013.385.029.762.045 1.143.049 1.21.08 2.326.454 3.305.06.16.225.983.875 1.71.649.728 1.921 1.182 3.37.88 1.022-.212 2.322-.594 3.186-1.787.854-1.178 1.238-2.868 1.314-5.61.02-.148.042-.274.066-.392l.204.017h.024c1.09.048 2.274-.102 3.262-.548.876-.393 1.538-.791 2.02-1.497.12-.175.253-.386.29-.75.035-.364-.18-.933-.537-1.196-.716-.527-1.166-.326-1.648-.23-.475.102-.959.16-1.445.17 1.39-2.27 2.387-4.684 2.956-6.819.336-1.26.525-2.422.54-3.438.016-1.016-.069-1.915-.697-2.694-1.961-2.431-4.718-3.103-6.852-3.126a5.607 5.607 0 0 0-.198-.002V2Zm-.057.747c2.018-.019 4.596.53 6.447 2.825.416.516.54 1.27.526 2.198-.016.928-.193 2.039-.516 3.255-.628 2.357-1.814 5.105-3.484 7.57.059.04.123.074.19.1.349.14 1.144.26 2.73-.056.399-.081.691-.136.994.088a.608.608 0 0 1 .22.495.807.807 0 0 1-.156.392c-.307.447-.912.87-1.687 1.22-.687.31-1.672.472-2.545.482-.438.004-.842-.028-1.184-.132l-.022-.009c-.132 1.237-.436 3.679-.635 4.793-.159.899-.437 1.613-.967 2.147-.529.534-1.278.856-2.286 1.066-1.248.26-2.158-.02-2.745-.5-.586-.477-.854-1.112-1.015-1.5-.11-.269-.169-.617-.224-1.081a23.01 23.01 0 0 1-.124-1.673 58.359 58.359 0 0 1-.036-2.944 3.727 3.727 0 0 1-1.866.887c-.829.137-1.568.002-2.01-.105a2.788 2.788 0 0 1-.625-.234c-.204-.107-.4-.227-.53-.463a.636.636 0 0 1-.068-.445.711.711 0 0 1 .262-.386c.239-.188.554-.293 1.029-.389.864-.172 1.166-.29 1.35-.431.156-.122.333-.367.646-.726a1.28 1.28 0 0 1-.004-.048 3.645 3.645 0 0 1-1.6-.418c-.18.185-1.1 1.13-2.224 2.441-.472.549-.994.863-1.545.886-.55.023-1.049-.247-1.472-.644-.845-.797-1.52-2.168-2.108-3.717-.587-1.55-1.064-3.275-1.404-4.745-.34-1.47-.54-2.656-.57-3.227-.126-2.43.46-4.066 1.464-5.099C5.27 3.588 6.648 3.197 7.992 3.122c2.41-.134 4.7.682 5.163.857.893-.588 2.042-.955 3.478-.931.682.009 1.36.094 2.022.254l.024-.01c.291-.1.588-.183.889-.25a11.915 11.915 0 0 1 2.49-.293l.001-.002Zm.183.781h-.176a10.82 10.82 0 0 0-2.049.224 8.969 8.969 0 0 1 3.428 2.625 9.784 9.784 0 0 1 1.36 2.24c.133.308.222.569.273.77.025.102.042.187.048.276a.5.5 0 0 1-.015.168c0 .003-.006.011-.007.015.036 1.022-.225 1.715-.256 2.69-.024.707.162 1.538.208 2.444.043.852-.063 1.788-.633 2.706.049.056.092.112.138.168 1.508-2.304 2.595-4.853 3.174-7.027.31-1.17.475-2.23.49-3.07.012-.84-.15-1.45-.355-1.704-1.614-2.002-3.798-2.512-5.628-2.526v.001Zm-5.76.299c-1.422.004-2.441.42-3.215 1.044-.797.645-1.332 1.529-1.683 2.433-.418 1.073-.56 2.111-.617 2.816l.015-.01c.43-.233.994-.466 1.598-.601.603-.134 1.254-.176 1.843.045.59.222 1.076.743 1.253 1.534.847 3.8-.263 5.213-.672 6.28-.155.386-.288.78-.398 1.181.052-.011.103-.025.155-.03.289-.023.515.07.65.126.41.166.693.513.846.91.04.104.068.216.085.331a.383.383 0 0 1 .024.149 62.416 62.416 0 0 0 .016 4.36c.028.628.069 1.181.12 1.617.052.436.125.767.172.88.154.372.379.861.785 1.194.407.331.99.553 2.056.331.923-.192 1.493-.46 1.874-.843.38-.384.608-.919.753-1.737.218-1.224.656-4.777.709-5.445-.025-.505.052-.892.218-1.187.171-.303.436-.489.664-.59.114-.05.221-.083.31-.108a6.974 6.974 0 0 0-.293-.379c-.33-.387-.6-.82-.8-1.282-.098-.191-.2-.38-.31-.564-.16-.28-.362-.63-.574-1.023-.423-.787-.883-1.742-1.123-2.671-.238-.93-.273-1.89.338-2.568.541-.602 1.491-.852 2.918-.712-.043-.122-.068-.224-.139-.387a9.067 9.067 0 0 0-1.252-2.058c-1.208-1.5-3.165-2.986-6.188-3.034h-.138v-.002Zm-7.988.06c-.152 0-.305.005-.457.014-1.214.067-2.363.409-3.184 1.254-.823.844-1.364 2.23-1.246 4.522.023.434.218 1.65.552 3.094.333 1.444.806 3.144 1.373 4.645.57 1.502 1.258 2.809 1.913 3.427.329.31.615.434.875.424.26-.012.575-.158.958-.605.7-.818 1.426-1.615 2.177-2.39a4.08 4.08 0 0 1-1.186-1.662 3.966 3.966 0 0 1-.217-2.012c.123-.862.14-1.669.126-2.306-.014-.62-.06-1.033-.06-1.291a.41.41 0 0 1 0-.022v-.006l-.001-.007v-.001c-.001-1.343.24-2.676.711-3.939.337-.868.839-1.75 1.59-2.464-.738-.236-2.049-.595-3.468-.663a9.436 9.436 0 0 0-.457-.011h.001Zm14.91 6.163c-.817.01-1.275.215-1.516.482-.34.38-.372 1.044-.16 1.863.21.82.645 1.737 1.054 2.5.204.38.403.724.563 1.003.16.28.279.478.35.647.067.156.14.294.215.422.316-.647.373-1.283.34-1.946-.042-.82-.238-1.659-.209-2.508.032-.993.235-1.64.253-2.407a7.174 7.174 0 0 0-.89-.056Zm-9.902.134c-.25.003-.498.032-.741.087-.484.114-.95.29-1.386.523a2.921 2.921 0 0 0-.42.266l-.027.024c.008.17.042.583.057 1.19a14.85 14.85 0 0 1-.135 2.432c-.287 1.995 1.205 3.647 2.959 3.65.102-.41.27-.825.438-1.263.489-1.276 1.45-2.207.64-5.84-.132-.595-.394-.835-.755-.97a1.827 1.827 0 0 0-.63-.099Zm9.52.238h.06c.08.003.153.01.217.026.065.014.12.035.166.064a.195.195 0 0 1 .09.128l-.001.01h.001-.001a.274.274 0 0 1-.042.157.779.779 0 0 1-.132.175.821.821 0 0 1-.465.248.726.726 0 0 1-.493-.12.724.724 0 0 1-.156-.138.3.3 0 0 1-.076-.148.194.194 0 0 1 .05-.15.46.46 0 0 1 .142-.105c.115-.063.271-.11.448-.135.066-.01.131-.014.193-.015v.003Zm-9.403.196c.063 0 .13.006.2.015.183.025.347.073.472.143.06.03.115.073.16.123a.258.258 0 0 1 .065.199.349.349 0 0 1-.09.18.774.774 0 0 1-.173.151.787.787 0 0 1-.538.132.883.883 0 0 1-.505-.266.827.827 0 0 1-.142-.191.32.32 0 0 1-.05-.207c.018-.126.125-.191.23-.227a1.07 1.07 0 0 1 .37-.047v-.005Zm10.895 8.567-.004.001c-.177.062-.322.088-.445.14a.538.538 0 0 0-.287.25c-.076.134-.141.372-.122.777a.624.624 0 0 0 .178.082c.206.06.55.1.936.094.767-.008 1.711-.182 2.213-.408a4.768 4.768 0 0 0 1.133-.718c-1.676.336-2.622.247-3.203.014a1.59 1.59 0 0 1-.4-.233v.001Zm-9.658.11h-.025c-.064.006-.157.027-.336.22-.418.454-.565.74-.91 1.007-.345.266-.794.409-1.69.587a2.356 2.356 0 0 0-.554.168c.035.028.031.035.084.062.131.07.3.132.435.166.385.093 1.018.201 1.678.093.66-.11 1.347-.417 1.932-1.213.101-.138.112-.341.03-.56-.085-.217-.269-.405-.399-.458a.8.8 0 0 0-.245-.07v-.002Z"/>
</svg>
